!! 00000] TT[00
!! NN
!!!OTL: Zou xikou, 2)
!!!ARE: Asia, China, Shanxi, Fugu
!! Ethnic Group: Han
!! I, 79, 2)
!!!SCT: C0030
!!!YEM: Copyright 1995, estate of Helmut Schaffrath.
**kern
*ICvox
*Ivox
*M2/4
*k[b-e-]
*B-:
{8ddd
8bb-
[4ccc
=1
4.ccc]
8ddd
=2
8.bb-
16ccc
8fff
16eee-
16ddd
=3
2ccc}
=4
{8ddd
8bb-
8.ccc
16ddd
=5
16bb-
8bb-
16ccc
8aa
8gg
=6
2ff}
=7
{8bb-
8bb-
8r
8ccc
=8
8fff
8fff
8r
8ddd
=9
8.ccc
16ddd
8bb-
16aa
16gg
=10
8ff
4dd
8ff}
=11
{8.bb-
16bb-
8bb-
8gg
=12
8ff
8dd
8bb-
8dd
=13
2cc}
==
!!!AGN: Xiaodiao. NannÅ liqing
!! leicht arrangiert von einem Vorsaenger. Diese Art Lieder gerieten
!!    auch in ein volkstuemliches Theater mit Gesang und Tanz.- Die
!!    Bauern dieser Region gingen oft in die mongolische Steppe oder
!!    siedelten wegen ihres armen Bodens dorthin um.
!!    Die letzten beiden Phrasen, 3 und 4) der 2. Strophe:
!!    +1_+1_0_+2_  +5_+5_0_+3_  +2_0+3+1060  5_063020
!!    +1+1+1+1+1_6_  5_3_+1_3_  2___ //
!!    Vereinzelt Verzierungen.
!!!ONB: ESAC (Essen Associative Code) Database: CHINA
!!!AMT: simple duple
!!!AIN: vox
!!!EED: Helmut Schaffrath
!!!EEV: 1.0
*-
!!!ONB: Tied note syntax fixed by Craig Sapp, 2004/05/03/
